X:25
T: VOM ALTEN DEUTSCHEN MEER UMFLOSSEN
N: B0028
O: Europa, Mitteleuropa, Deutschland, Thueringen
R: politisch, national, Vaterlands - Lied
M: 4/4
L: 1/8
K: Bb
FFF | B2B2d2BF | F2F2z
FFF | c2c2e2cA | B4z
BBB | BGG=EC2CB | AFF2z
FFF | A3FB2F2 | cAF2z2
F2 | B3Bd2B2 | B3GG2z
G | c3Ge2dc | B4d2c2 | B4z

